X: 4779
T: Boys Of Malin, The
R: reel
M: 4/4
K: Amajor
K: Amaj
|:"A"ABcd eAce|"D"fedf edcB|"A"ABcd eAce|1 "D" feBc "E"d2cB:|2 "D" feBc "E"defg||
"A"aA A/A/A eAce|"A"aAAg fefg|"A"aA A/A/A eAce|"D"dcBc defg|
"A"aA A/A/A eAce|"A"a2 ga fefg|"D"afge fdec|"D"dcBc "E"d2cB|
|:"A"Aece Aece|Aece "G"d2cB|"A"Aece Aece|"G"feBc "D"d2cB:|

